src/img/woorank-logo.svg

<?xml version="1.0" encoding="UTF-8" standalone="no"?>
<svg width="20px" height="16px" viewBox="0 0 20 16" version="1.1" xmlns="http://www.w3.org/2000/svg" xmlns:xlink="http://www.w3.org/1999/xlink">
    <g stroke="none" stroke-width="1" fill-rule="evenodd" fill="#FFF">
        <path d="M7.94223827,15.6862745 C14.484657,15.6862745 19.8555957,7.84313721 19.8555957,7.84313721 C19.8555957,7.84313721 14.484657,8.8817842e-16 7.94223827,8.8817842e-16 C3.66236462,8.8817842e-16 0,3.61666667 0,7.84313721 C0,12.0696078 3.66236462,15.6862745 7.94223827,15.6862745 Z M7.27633803,10.5952027 L7.97833936,11.2884446 L8.6803407,10.5952027 L12.6514598,6.67363414 C13.0391644,6.29076714 13.0391644,5.67001719 12.6514598,5.28715021 C12.2637552,4.90428327 11.6351618,4.90428327 11.2474572,5.28715021 L7.99345003,8.53039904 L6.69478113,7.24793454 C6.30707648,6.86506754 5.67848311,6.86506754 5.29077846,7.24793454 C4.90307385,7.63080154 4.90307385,8.25155144 5.29077846,8.63441844 L7.27633803,10.5952027 Z"></path>
    </g>
</svg>

<svg width="20" height="16" viewBox="0 0 20 16" xmlns="http://www.w3.org/2000/svg"><path d="M7.942 15.686c6.543 0 11.914-7.843 11.914-7.843S14.486 0 7.942 0C3.662 0 0 3.617 0 7.843c0 4.227 3.662 7.843 7.942 7.843zm-.666-5.09l.702.692.702-.693 3.97-3.92c.39-.384.39-1.005 0-1.388-.386-.383-1.015-.383-1.403 0L7.993 8.53 6.695 7.248c-.388-.383-1.017-.383-1.404 0s-.387 1.004 0 1.386l1.986 1.96z" fill-rule="evenodd" fill="#FFF"/></svg>
